X:1356
T:Bell Quick Step,The. CJF.049
M:2/4
L:1/8
Q:240
S: C.J.Fox MS, 1829/33, Beverley,E.Yorks.
R:March
O:England
A:East Yorkshire
B:Kidson Coll.Mitchell Lib.M1805
N:In bar 8 of 3rd section I think c'3 should be d'3 - PJH.
Z:P J Headford 2000
K:D
g|fafd|fafd|cdef|ga/b/ ag|fafd|fa d'>b|\
afef|d2d:|:!d|d>e fb|af f(d'/b/)|
af (g/f/).e/.d/|(c/d/).e/.f/ ed|d>e fb|af d'>b|\
af ef|d2d:|:!.d'|.c'.b.a.g|.f.e.d.d'|.c'.b.a.g|.f.e.d.f|gb ec'|
d'afd|gb dc'|c'3(d'/c'/)|!(b/a/)(f/e/) e(d'/b/)|(a/g/)(f/e/) d(d'/c'/)|\
b/a/g/f/ ed'|a2a(d'/c'/)|(b/a/)(g/f/) e(d'/b/)|a/g/f/e/ df|!gbea|
dd'c'b|agfe|fafd|cdef|g(a/b/) a>g|fafd|fa d'>b|afef|d2d:|]


